design-assets/CC Showcase/cool_neutral_portrait_lut.cube
TITLE "Cool Neutral Portrait LUT"
LUT_3D_SIZE 5
DOMAIN_MIN 0.0 0.0 0.0
DOMAIN_MAX 1.0 1.0 1.0
0.000000 0.000000 0.020000
0.207000 0.000000 0.020000
0.460000 0.000000 0.020000
0.713000 0.000000 0.020000
0.920000 0.000000 0.020000
0.000000 0.218250 0.020000
0.207000 0.218250 0.020000
0.460000 0.218250 0.020000
0.713000 0.218250 0.020000
0.920000 0.218250 0.020000
0.000000 0.485000 0.020000
0.207000 0.485000 0.020000
0.460000 0.485000 0.020000
0.713000 0.485000 0.020000
0.920000 0.485000 0.020000
0.000000 0.751750 0.020000
0.207000 0.751750 0.020000
0.460000 0.751750 0.020000
0.713000 0.751750 0.020000
0.920000 0.751750 0.020000
0.000000 0.970000 0.020000
0.207000 0.970000 0.020000
0.460000 0.970000 0.020000
0.713000 0.970000 0.020000
0.920000 0.970000 0.020000
0.000000 0.000000 0.263000
0.207000 0.000000 0.263000
0.460000 0.000000 0.263000
0.713000 0.000000 0.263000
0.920000 0.000000 0.263000
0.000000 0.218250 0.263000
0.207000 0.218250 0.263000
0.460000 0.218250 0.263000
0.713000 0.218250 0.263000
0.920000 0.218250 0.263000
0.000000 0.485000 0.263000
0.207000 0.485000 0.263000
0.460000 0.485000 0.263000
0.713000 0.485000 0.263000
0.920000 0.485000 0.263000
0.000000 0.751750 0.263000
0.207000 0.751750 0.263000
0.460000 0.751750 0.263000
0.713000 0.751750 0.263000
0.920000 0.751750 0.263000
0.000000 0.970000 0.263000
0.207000 0.970000 0.263000
0.460000 0.970000 0.263000
0.713000 0.970000 0.263000
0.920000 0.970000 0.263000
0.000000 0.000000 0.560000
0.207000 0.000000 0.560000
0.460000 0.000000 0.560000
0.713000 0.000000 0.560000
0.920000 0.000000 0.560000
0.000000 0.218250 0.560000
0.207000 0.218250 0.560000
0.460000 0.218250 0.560000
0.713000 0.218250 0.560000
0.920000 0.218250 0.560000
0.000000 0.485000 0.560000
0.207000 0.485000 0.560000
0.460000 0.485000 0.560000
0.713000 0.485000 0.560000
0.920000 0.485000 0.560000
0.000000 0.751750 0.560000
0.207000 0.751750 0.560000
0.460000 0.751750 0.560000
0.713000 0.751750 0.560000
0.920000 0.751750 0.560000
0.000000 0.970000 0.560000
0.207000 0.970000 0.560000
0.460000 0.970000 0.560000
0.713000 0.970000 0.560000
0.920000 0.970000 0.560000
0.000000 0.000000 0.857000
0.207000 0.000000 0.857000
0.460000 0.000000 0.857000
0.713000 0.000000 0.857000
0.920000 0.000000 0.857000
0.000000 0.218250 0.857000
0.207000 0.218250 0.857000
0.460000 0.218250 0.857000
0.713000 0.218250 0.857000
0.920000 0.218250 0.857000
0.000000 0.485000 0.857000
0.207000 0.485000 0.857000
0.460000 0.485000 0.857000
0.713000 0.485000 0.857000
0.920000 0.485000 0.857000
0.000000 0.751750 0.857000
0.207000 0.751750 0.857000
0.460000 0.751750 0.857000
0.713000 0.751750 0.857000
0.920000 0.751750 0.857000
0.000000 0.970000 0.857000
0.207000 0.970000 0.857000
0.460000 0.970000 0.857000
0.713000 0.970000 0.857000
0.920000 0.970000 0.857000
0.000000 0.000000 1.000000
0.207000 0.000000 1.000000
0.460000 0.000000 1.000000
0.713000 0.000000 1.000000
0.920000 0.000000 1.000000
0.000000 0.218250 1.000000
0.207000 0.218250 1.000000
0.460000 0.218250 1.000000
0.713000 0.218250 1.000000
0.920000 0.218250 1.000000
0.000000 0.485000 1.000000
0.207000 0.485000 1.000000
0.460000 0.485000 1.000000
0.713000 0.485000 1.000000
0.920000 0.485000 1.000000
0.000000 0.751750 1.000000
0.207000 0.751750 1.000000
0.460000 0.751750 1.000000
0.713000 0.751750 1.000000
0.920000 0.751750 1.000000
0.000000 0.970000 1.000000
0.207000 0.970000 1.000000
0.460000 0.970000 1.000000
0.713000 0.970000 1.000000
0.920000 0.970000 1.000000
