design-assets/CC Showcase/cool_neutral_portrait_lut.cube
TITLE "Cool Neutral Portrait LUT"
LUT_3D_SIZE 17
DOMAIN_MIN 0.0 0.0 0.0
DOMAIN_MAX 1.0 1.0 1.0
0.000000 0.000000 0.020000
0.017250 0.000000 0.020000
0.080500 0.000000 0.020000
0.143750 0.000000 0.020000
0.207000 0.000000 0.020000
0.270250 0.000000 0.020000
0.333500 0.000000 0.020000
0.396750 0.000000 0.020000
0.460000 0.000000 0.020000
0.523250 0.000000 0.020000
0.586500 0.000000 0.020000
0.649750 0.000000 0.020000
0.713000 0.000000 0.020000
0.776250 0.000000 0.020000
0.839500 0.000000 0.020000
0.902750 0.000000 0.020000
0.920000 0.000000 0.020000
0.000000 0.018187 0.020000
0.017250 0.018187 0.020000
0.080500 0.018187 0.020000
0.143750 0.018187 0.020000
0.207000 0.018187 0.020000
0.270250 0.018187 0.020000
0.333500 0.018187 0.020000
0.396750 0.018187 0.020000
0.460000 0.018187 0.020000
0.523250 0.018187 0.020000
0.586500 0.018187 0.020000
0.649750 0.018187 0.020000
0.713000 0.018187 0.020000
0.776250 0.018187 0.020000
0.839500 0.018187 0.020000
0.902750 0.018187 0.020000
0.920000 0.018187 0.020000
0.000000 0.084875 0.020000
0.017250 0.084875 0.020000
0.080500 0.084875 0.020000
0.143750 0.084875 0.020000
0.207000 0.084875 0.020000
0.270250 0.084875 0.020000
0.333500 0.084875 0.020000
0.396750 0.084875 0.020000
0.460000 0.084875 0.020000
0.523250 0.084875 0.020000
0.586500 0.084875 0.020000
0.649750 0.084875 0.020000
0.713000 0.084875 0.020000
0.776250 0.084875 0.020000
0.839500 0.084875 0.020000
0.902750 0.084875 0.020000
0.920000 0.084875 0.020000
0.000000 0.151562 0.020000
0.017250 0.151562 0.020000
0.080500 0.151562 0.020000
0.143750 0.151562 0.020000
0.207000 0.151562 0.020000
0.270250 0.151562 0.020000
0.333500 0.151562 0.020000
0.396750 0.151562 0.020000
0.460000 0.151562 0.020000
0.523250 0.151562 0.020000
0.586500 0.151562 0.020000
0.649750 0.151562 0.020000
0.713000 0.151562 0.020000
0.776250 0.151562 0.020000
0.839500 0.151562 0.020000
0.902750 0.151562 0.020000
0.920000 0.151562 0.020000
0.000000 0.218250 0.020000
0.017250 0.218250 0.020000
0.080500 0.218250 0.020000
0.143750 0.218250 0.020000
0.207000 0.218250 0.020000
0.270250 0.218250 0.020000
0.333500 0.218250 0.020000
0.396750 0.218250 0.020000
0.460000 0.218250 0.020000
0.523250 0.218250 0.020000
0.586500 0.218250 0.020000
0.649750 0.218250 0.020000
0.713000 0.218250 0.020000
0.776250 0.218250 0.020000
0.839500 0.218250 0.020000
0.902750 0.218250 0.020000
0.920000 0.218250 0.020000
0.000000 0.284937 0.020000
0.017250 0.284937 0.020000
0.080500 0.284937 0.020000
0.143750 0.284937 0.020000
0.207000 0.284937 0.020000
0.270250 0.284937 0.020000
0.333500 0.284937 0.020000
0.396750 0.284937 0.020000
0.460000 0.284937 0.020000
0.523250 0.284937 0.020000
0.586500 0.284937 0.020000
0.649750 0.284937 0.020000
0.713000 0.284937 0.020000
0.776250 0.284937 0.020000
0.839500 0.284937 0.020000
0.902750 0.284937 0.020000
0.920000 0.284937 0.020000
0.000000 0.351625 0.020000
0.017250 0.351625 0.020000
0.080500 0.351625 0.020000
0.143750 0.351625 0.020000
0.207000 0.351625 0.020000
0.270250 0.351625 0.020000
0.333500 0.351625 0.020000
0.396750 0.351625 0.020000
0.460000 0.351625 0.020000
0.523250 0.351625 0.020000
0.586500 0.351625 0.020000
0.649750 0.351625 0.020000
0.713000 0.351625 0.020000
0.776250 0.351625 0.020000
0.839500 0.351625 0.020000
0.902750 0.351625 0.020000
0.920000 0.351625 0.020000
0.000000 0.418313 0.020000
0.017250 0.418313 0.020000
0.080500 0.418313 0.020000
0.143750 0.418313 0.020000
0.207000 0.418313 0.020000
0.270250 0.418313 0.020000
0.333500 0.418313 0.020000
0.396750 0.418313 0.020000
0.460000 0.418313 0.020000
0.523250 0.418313 0.020000
0.586500 0.418313 0.020000
0.649750 0.418313 0.020000
0.713000 0.418313 0.020000
0.776250 0.418313 0.020000
0.839500 0.418313 0.020000
0.902750 0.418313 0.020000
0.920000 0.418313 0.020000
0.000000 0.485000 0.020000
0.017250 0.485000 0.020000
0.080500 0.485000 0.020000
0.143750 0.485000 0.020000
0.207000 0.485000 0.020000
0.270250 0.485000 0.020000
0.333500 0.485000 0.020000
0.396750 0.485000 0.020000
0.460000 0.485000 0.020000
0.523250 0.485000 0.020000
0.586500 0.485000 0.020000
0.649750 0.485000 0.020000
0.713000 0.485000 0.020000
0.776250 0.485000 0.020000
0.839500 0.485000 0.020000
0.902750 0.485000 0.020000
0.920000 0.485000 0.020000
0.000000 0.551687 0.020000
0.017250 0.551687 0.020000
0.080500 0.551687 0.020000
0.143750 0.551687 0.020000
0.207000 0.551687 0.020000
0.270250 0.551687 0.020000
0.333500 0.551687 0.020000
0.396750 0.551687 0.020000
0.460000 0.551687 0.020000
0.523250 0.551687 0.020000
0.586500 0.551687 0.020000
0.649750 0.551687 0.020000
0.713000 0.551687 0.020000
0.776250 0.551687 0.020000
0.839500 0.551687 0.020000
0.902750 0.551687 0.020000
0.920000 0.551687 0.020000
0.000000 0.618375 0.020000
0.017250 0.618375 0.020000
0.080500 0.618375 0.020000
0.143750 0.618375 0.020000
0.207000 0.618375 0.020000
0.270250 0.618375 0.020000
0.333500 0.618375 0.020000
0.396750 0.618375 0.020000
0.460000 0.618375 0.020000
0.523250 0.618375 0.020000
0.586500 0.618375 0.020000
0.649750 0.618375 0.020000
0.713000 0.618375 0.020000
0.776250 0.618375 0.020000
0.839500 0.618375 0.020000
0.902750 0.618375 0.020000
0.920000 0.618375 0.020000
0.000000 0.685063 0.020000
0.017250 0.685063 0.020000
0.080500 0.685063 0.020000
0.143750 0.685063 0.020000
0.207000 0.685063 0.020000
0.270250 0.685063 0.020000
0.333500 0.685063 0.020000
0.396750 0.685063 0.020000
0.460000 0.685063 0.020000
0.523250 0.685063 0.020000
0.586500 0.685063 0.020000
0.649750 0.685063 0.020000
0.713000 0.685063 0.020000
0.776250 0.685063 0.020000
0.839500 0.685063 0.020000
0.902750 0.685063 0.020000
0.920000 0.685063 0.020000
0.000000 0.751750 0.020000
0.017250 0.751750 0.020000
0.080500 0.751750 0.020000
0.143750 0.751750 0.020000
0.207000 0.751750 0.020000
0.270250 0.751750 0.020000
0.333500 0.751750 0.020000
0.396750 0.751750 0.020000
0.460000 0.751750 0.020000
0.523250 0.751750 0.020000
0.586500 0.751750 0.020000
0.649750 0.751750 0.020000
0.713000 0.751750 0.020000
0.776250 0.751750 0.020000
0.839500 0.751750 0.020000
0.902750 0.751750 0.020000
0.920000 0.751750 0.020000
0.000000 0.818437 0.020000
0.017250 0.818437 0.020000
0.080500 0.818437 0.020000
0.143750 0.818437 0.020000
0.207000 0.818437 0.020000
0.270250 0.818437 0.020000
0.333500 0.818437 0.020000
0.396750 0.818437 0.020000
0.460000 0.818437 0.020000
0.523250 0.818437 0.020000
0.586500 0.818437 0.020000
0.649750 0.818437 0.020000
0.713000 0.818437 0.020000
0.776250 0.818437 0.020000
0.839500 0.818437 0.020000
0.902750 0.818437 0.020000
0.920000 0.818437 0.020000
0.000000 0.885125 0.020000
0.017250 0.885125 0.020000
0.080500 0.885125 0.020000
0.143750 0.885125 0.020000
0.207000 0.885125 0.020000
0.270250 0.885125 0.020000
0.333500 0.885125 0.020000
0.396750 0.885125 0.020000
0.460000 0.885125 0.020000
0.523250 0.885125 0.020000
0.586500 0.885125 0.020000
0.649750 0.885125 0.020000
0.713000 0.885125 0.020000
0.776250 0.885125 0.020000
0.839500 0.885125 0.020000
0.902750 0.885125 0.020000
0.920000 0.885125 0.020000
0.000000 0.951813 0.020000
0.017250 0.951813 0.020000
0.080500 0.951813 0.020000
0.143750 0.951813 0.020000
0.207000 0.951813 0.020000
0.270250 0.951813 0.020000
0.333500 0.951813 0.020000
0.396750 0.951813 0.020000
0.460000 0.951813 0.020000
0.523250 0.951813 0.020000
0.586500 0.951813 0.020000
0.649750 0.951813 0.020000
0.713000 0.951813 0.020000
0.776250 0.951813 0.020000
0.839500 0.951813 0.020000
0.902750 0.951813 0.020000
0.920000 0.951813 0.020000
0.000000 0.970000 0.020000
0.017250 0.970000 0.020000
0.080500 0.970000 0.020000
0.143750 0.970000 0.020000
0.207000 0.970000 0.020000
0.270250 0.970000 0.020000
0.333500 0.970000 0.020000
0.396750 0.970000 0.020000
0.460000 0.970000 0.020000
0.523250 0.970000 0.020000
0.586500 0.970000 0.020000
0.649750 0.970000 0.020000
0.713000 0.970000 0.020000
0.776250 0.970000 0.020000
0.839500 0.970000 0.020000
0.902750 0.970000 0.020000
0.920000 0.970000 0.020000
0.000000 0.000000 0.040250
0.017250 0.000000 0.040250
0.080500 0.000000 0.040250
0.143750 0.000000 0.040250
0.207000 0.000000 0.040250
0.270250 0.000000 0.040250
0.333500 0.000000 0.040250
0.396750 0.000000 0.040250
0.460000 0.000000 0.040250
0.523250 0.000000 0.040250
0.586500 0.000000 0.040250
0.649750 0.000000 0.040250
0.713000 0.000000 0.040250
0.776250 0.000000 0.040250
0.839500 0.000000 0.040250
0.902750 0.000000 0.040250
0.920000 0.000000 0.040250
0.000000 0.018187 0.040250
0.017250 0.018187 0.040250
0.080500 0.018187 0.040250
0.143750 0.018187 0.040250
0.207000 0.018187 0.040250
0.270250 0.018187 0.040250
0.333500 0.018187 0.040250
0.396750 0.018187 0.040250
0.460000 0.018187 0.040250
0.523250 0.018187 0.040250
0.586500 0.018187 0.040250
0.649750 0.018187 0.040250
0.713000 0.018187 0.040250
0.776250 0.018187 0.040250
0.839500 0.018187 0.040250
0.902750 0.018187 0.040250
0.920000 0.018187 0.040250
0.000000 0.084875 0.040250
0.017250 0.084875 0.040250
0.080500 0.084875 0.040250
0.143750 0.084875 0.040250
0.207000 0.084875 0.040250
0.270250 0.084875 0.040250
0.333500 0.084875 0.040250
0.396750 0.084875 0.040250
0.460000 0.084875 0.040250
0.523250 0.084875 0.040250
0.586500 0.084875 0.040250
0.649750 0.084875 0.040250
0.713000 0.084875 0.040250
0.776250 0.084875 0.040250
0.839500 0.084875 0.040250
0.902750 0.084875 0.040250
0.920000 0.084875 0.040250
0.000000 0.151562 0.040250
0.017250 0.151562 0.040250
0.080500 0.151562 0.040250
0.143750 0.151562 0.040250
0.207000 0.151562 0.040250
0.270250 0.151562 0.040250
0.333500 0.151562 0.040250
0.396750 0.151562 0.040250
0.460000 0.151562 0.040250
0.523250 0.151562 0.040250
0.586500 0.151562 0.040250
0.649750 0.151562 0.040250
0.713000 0.151562 0.040250
0.776250 0.151562 0.040250
0.839500 0.151562 0.040250
0.902750 0.151562 0.040250
0.920000 0.151562 0.040250
0.000000 0.218250 0.040250
0.017250 0.218250 0.040250
0.080500 0.218250 0.040250
0.143750 0.218250 0.040250
0.207000 0.218250 0.040250
0.270250 0.218250 0.040250
0.333500 0.218250 0.040250
0.396750 0.218250 0.040250
0.460000 0.218250 0.040250
0.523250 0.218250 0.040250
0.586500 0.218250 0.040250
0.649750 0.218250 0.040250
0.713000 0.218250 0.040250
0.776250 0.218250 0.040250
0.839500 0.218250 0.040250
0.902750 0.218250 0.040250
0.920000 0.218250 0.040250
0.000000 0.284937 0.040250
0.017250 0.284937 0.040250
0.080500 0.284937 0.040250
0.143750 0.284937 0.040250
0.207000 0.284937 0.040250
0.270250 0.284937 0.040250
0.333500 0.284937 0.040250
0.396750 0.284937 0.040250
0.460000 0.284937 0.040250
0.523250 0.284937 0.040250
0.586500 0.284937 0.040250
0.649750 0.284937 0.040250
0.713000 0.284937 0.040250
0.776250 0.284937 0.040250
0.839500 0.284937 0.040250
0.902750 0.284937 0.040250
0.920000 0.284937 0.040250
0.000000 0.351625 0.040250
0.017250 0.351625 0.040250
0.080500 0.351625 0.040250
0.143750 0.351625 0.040250
0.207000 0.351625 0.040250
0.270250 0.351625 0.040250
0.333500 0.351625 0.040250
0.396750 0.351625 0.040250
0.460000 0.351625 0.040250
0.523250 0.351625 0.040250
0.586500 0.351625 0.040250
0.649750 0.351625 0.040250
0.713000 0.351625 0.040250
0.776250 0.351625 0.040250
0.839500 0.351625 0.040250
0.902750 0.351625 0.040250
0.920000 0.351625 0.040250
0.000000 0.418313 0.040250
0.017250 0.418313 0.040250
0.080500 0.418313 0.040250
0.143750 0.418313 0.040250
0.207000 0.418313 0.040250
0.270250 0.418313 0.040250
0.333500 0.418313 0.040250
0.396750 0.418313 0.040250
0.460000 0.418313 0.040250
0.523250 0.418313 0.040250
0.586500 0.418313 0.040250
0.649750 0.418313 0.040250
0.713000 0.418313 0.040250
0.776250 0.418313 0.040250
0.839500 0.418313 0.040250
0.902750 0.418313 0.040250
0.920000 0.418313 0.040250
0.000000 0.485000 0.040250
0.017250 0.485000 0.040250
0.080500 0.485000 0.040250
0.143750 0.485000 0.040250
0.207000 0.485000 0.040250
0.270250 0.485000 0.040250
0.333500 0.485000 0.040250
0.396750 0.485000 0.040250
0.460000 0.485000 0.040250
0.523250 0.485000 0.040250
0.586500 0.485000 0.040250
0.649750 0.485000 0.040250
0.713000 0.485000 0.040250
0.776250 0.485000 0.040250
0.839500 0.485000 0.040250
0.902750 0.485000 0.040250
0.920000 0.485000 0.040250
0.000000 0.551687 0.040250
0.017250 0.551687 0.040250
0.080500 0.551687 0.040250
0.143750 0.551687 0.040250
0.207000 0.551687 0.040250
0.270250 0.551687 0.040250
0.333500 0.551687 0.040250
0.396750 0.551687 0.040250
0.460000 0.551687 0.040250
0.523250 0.551687 0.040250
0.586500 0.551687 0.040250
0.649750 0.551687 0.040250
0.713000 0.551687 0.040250
0.776250 0.551687 0.040250
0.839500 0.551687 0.040250
0.902750 0.551687 0.040250
0.920000 0.551687 0.040250
0.000000 0.618375 0.040250
0.017250 0.618375 0.040250
0.080500 0.618375 0.040250
0.143750 0.618375 0.040250
0.207000 0.618375 0.040250
0.270250 0.618375 0.040250
0.333500 0.618375 0.040250
0.396750 0.618375 0.040250
0.460000 0.618375 0.040250
0.523250 0.618375 0.040250
0.586500 0.618375 0.040250
0.649750 0.618375 0.040250
0.713000 0.618375 0.040250
0.776250 0.618375 0.040250
0.839500 0.618375 0.040250
0.902750 0.618375 0.040250
0.920000 0.618375 0.040250
0.000000 0.685063 0.040250
0.017250 0.685063 0.040250
0.080500 0.685063 0.040250
0.143750 0.685063 0.040250
0.207000 0.685063 0.040250
0.270250 0.685063 0.040250
0.333500 0.685063 0.040250
0.396750 0.685063 0.040250
0.460000 0.685063 0.040250
0.523250 0.685063 0.040250
0.586500 0.685063 0.040250
0.649750 0.685063 0.040250
0.713000 0.685063 0.040250
0.776250 0.685063 0.040250
0.839500 0.685063 0.040250
0.902750 0.685063 0.040250
0.920000 0.685063 0.040250
0.000000 0.751750 0.040250
0.017250 0.751750 0.040250
0.080500 0.751750 0.040250
0.143750 0.751750 0.040250
0.207000 0.751750 0.040250
0.270250 0.751750 0.040250
0.333500 0.751750 0.040250
0.396750 0.751750 0.040250
0.460000 0.751750 0.040250
0.523250 0.751750 0.040250
0.586500 0.751750 0.040250
0.649750 0.751750 0.040250
0.713000 0.751750 0.040250
0.776250 0.751750 0.040250
0.839500 0.751750 0.040250
0.902750 0.751750 0.040250
0.920000 0.751750 0.040250
0.000000 0.818437 0.040250
0.017250 0.818437 0.040250
0.080500 0.818437 0.040250
0.143750 0.818437 0.040250
0.207000 0.818437 0.040250
0.270250 0.818437 0.040250
0.333500 0.818437 0.040250
0.396750 0.818437 0.040250
0.460000 0.818437 0.040250
0.523250 0.818437 0.040250
0.586500 0.818437 0.040250
0.649750 0.818437 0.040250
0.713000 0.818437 0.040250
0.776250 0.818437 0.040250
0.839500 0.818437 0.040250
0.902750 0.818437 0.040250
0.920000 0.818437 0.040250
0.000000 0.885125 0.040250
0.017250 0.885125 0.040250
0.080500 0.885125 0.040250
0.143750 0.885125 0.040250
0.207000 0.885125 0.040250
0.270250 0.885125 0.040250
0.333500 0.885125 0.040250
0.396750 0.885125 0.040250
0.460000 0.885125 0.040250
0.523250 0.885125 0.040250
0.586500 0.885125 0.040250
0.649750 0.885125 0.040250
0.713000 0.885125 0.040250
0.776250 0.885125 0.040250
0.839500 0.885125 0.040250
0.902750 0.885125 0.040250
0.920000 0.885125 0.040250
0.000000 0.951813 0.040250
0.017250 0.951813 0.040250
0.080500 0.951813 0.040250
0.143750 0.951813 0.040250
0.207000 0.951813 0.040250
0.270250 0.951813 0.040250
0.333500 0.951813 0.040250
0.396750 0.951813 0.040250
0.460000 0.951813 0.040250
0.523250 0.951813 0.040250
0.586500 0.951813 0.040250
0.649750 0.951813 0.040250
0.713000 0.951813 0.040250
0.776250 0.951813 0.040250
0.839500 0.951813 0.040250
0.902750 0.951813 0.040250
0.920000 0.951813 0.040250
0.000000 0.970000 0.040250
0.017250 0.970000 0.040250
0.080500 0.970000 0.040250
0.143750 0.970000 0.040250
0.207000 0.970000 0.040250
0.270250 0.970000 0.040250
0.333500 0.970000 0.040250
0.396750 0.970000 0.040250
0.460000 0.970000 0.040250
0.523250 0.970000 0.040250
0.586500 0.970000 0.040250
0.649750 0.970000 0.040250
0.713000 0.970000 0.040250
0.776250 0.970000 0.040250
0.839500 0.970000 0.040250
0.902750 0.970000 0.040250
0.920000 0.970000 0.040250
0.000000 0.000000 0.114500
0.017250 0.000000 0.114500
0.080500 0.000000 0.114500
0.143750 0.000000 0.114500
0.207000 0.000000 0.114500
0.270250 0.000000 0.114500
0.333500 0.000000 0.114500
0.396750 0.000000 0.114500
0.460000 0.000000 0.114500
0.523250 0.000000 0.114500
0.586500 0.000000 0.114500
0.649750 0.000000 0.114500
0.713000 0.000000 0.114500
0.776250 0.000000 0.114500
0.839500 0.000000 0.114500
0.902750 0.000000 0.114500
0.920000 0.000000 0.114500
0.000000 0.018187 0.114500
0.017250 0.018187 0.114500
0.080500 0.018187 0.114500
0.143750 0.018187 0.114500
0.207000 0.018187 0.114500
0.270250 0.018187 0.114500
0.333500 0.018187 0.114500
0.396750 0.018187 0.114500
0.460000 0.018187 0.114500
0.523250 0.018187 0.114500
0.586500 0.018187 0.114500
0.649750 0.018187 0.114500
0.713000 0.018187 0.114500
0.776250 0.018187 0.114500
0.839500 0.018187 0.114500
0.902750 0.018187 0.114500
0.920000 0.018187 0.114500
0.000000 0.084875 0.114500
0.017250 0.084875 0.114500
0.080500 0.084875 0.114500
0.143750 0.084875 0.114500
0.207000 0.084875 0.114500
0.270250 0.084875 0.114500
0.333500 0.084875 0.114500
0.396750 0.084875 0.114500
0.460000 0.084875 0.114500
0.523250 0.084875 0.114500
0.586500 0.084875 0.114500
0.649750 0.084875 0.114500
0.713000 0.084875 0.114500
0.776250 0.084875 0.114500
0.839500 0.084875 0.114500
0.902750 0.084875 0.114500
0.920000 0.084875 0.114500
0.000000 0.151562 0.114500
0.017250 0.151562 0.114500
0.080500 0.151562 0.114500
0.143750 0.151562 0.114500
0.207000 0.151562 0.114500
0.270250 0.151562 0.114500
0.333500 0.151562 0.114500
0.396750 0.151562 0.114500
0.460000 0.151562 0.114500
0.523250 0.151562 0.114500
0.586500 0.151562 0.114500
0.649750 0.151562 0.114500
0.713000 0.151562 0.114500
0.776250 0.151562 0.114500
0.839500 0.151562 0.114500
0.902750 0.151562 0.114500
0.920000 0.151562 0.114500
0.000000 0.218250 0.114500
0.017250 0.218250 0.114500
0.080500 0.218250 0.114500
0.143750 0.218250 0.114500
0.207000 0.218250 0.114500
0.270250 0.218250 0.114500
0.333500 0.218250 0.114500
0.396750 0.218250 0.114500
0.460000 0.218250 0.114500
0.523250 0.218250 0.114500
0.586500 0.218250 0.114500
0.649750 0.218250 0.114500
0.713000 0.218250 0.114500
0.776250 0.218250 0.114500
0.839500 0.218250 0.114500
0.902750 0.218250 0.114500
0.920000 0.218250 0.114500
0.000000 0.284937 0.114500
0.017250 0.284937 0.114500
0.080500 0.284937 0.114500
0.143750 0.284937 0.114500
0.207000 0.284937 0.114500
0.270250 0.284937 0.114500
0.333500 0.284937 0.114500
0.396750 0.284937 0.114500
0.460000 0.284937 0.114500
0.523250 0.284937 0.114500
0.586500 0.284937 0.114500
0.649750 0.284937 0.114500
0.713000 0.284937 0.114500
0.776250 0.284937 0.114500
0.839500 0.284937 0.114500
0.902750 0.284937 0.114500
0.920000 0.284937 0.114500
0.000000 0.351625 0.114500
0.017250 0.351625 0.114500
0.080500 0.351625 0.114500
0.143750 0.351625 0.114500
0.207000 0.351625 0.114500
0.270250 0.351625 0.114500
0.333500 0.351625 0.114500
0.396750 0.351625 0.114500
0.460000 0.351625 0.114500
0.523250 0.351625 0.114500
0.586500 0.351625 0.114500
0.649750 0.351625 0.114500
0.713000 0.351625 0.114500
0.776250 0.351625 0.114500
0.839500 0.351625 0.114500
0.902750 0.351625 0.114500
0.920000 0.351625 0.114500
0.000000 0.418313 0.114500
0.017250 0.418313 0.114500
0.080500 0.418313 0.114500
0.143750 0.418313 0.114500
0.207000 0.418313 0.114500
0.270250 0.418313 0.114500
0.333500 0.418313 0.114500
0.396750 0.418313 0.114500
0.460000 0.418313 0.114500
0.523250 0.418313 0.114500
0.586500 0.418313 0.114500
0.649750 0.418313 0.114500
0.713000 0.418313 0.114500
0.776250 0.418313 0.114500
0.839500 0.418313 0.114500
0.902750 0.418313 0.114500
0.920000 0.418313 0.114500
0.000000 0.485000 0.114500
0.017250 0.485000 0.114500
0.080500 0.485000 0.114500
0.143750 0.485000 0.114500
0.207000 0.485000 0.114500
0.270250 0.485000 0.114500
0.333500 0.485000 0.114500
0.396750 0.485000 0.114500
0.460000 0.485000 0.114500
0.523250 0.485000 0.114500
0.586500 0.485000 0.114500
0.649750 0.485000 0.114500
0.713000 0.485000 0.114500
0.776250 0.485000 0.114500
0.839500 0.485000 0.114500
0.902750 0.485000 0.114500
0.920000 0.485000 0.114500
0.000000 0.551687 0.114500
0.017250 0.551687 0.114500
0.080500 0.551687 0.114500
0.143750 0.551687 0.114500
0.207000 0.551687 0.114500
0.270250 0.551687 0.114500
0.333500 0.551687 0.114500
0.396750 0.551687 0.114500
0.460000 0.551687 0.114500
0.523250 0.551687 0.114500
0.586500 0.551687 0.114500
0.649750 0.551687 0.114500
0.713000 0.551687 0.114500
0.776250 0.551687 0.114500
0.839500 0.551687 0.114500
0.902750 0.551687 0.114500
0.920000 0.551687 0.114500
0.000000 0.618375 0.114500
0.017250 0.618375 0.114500
0.080500 0.618375 0.114500
0.143750 0.618375 0.114500
0.207000 0.618375 0.114500
0.270250 0.618375 0.114500
0.333500 0.618375 0.114500
0.396750 0.618375 0.114500
0.460000 0.618375 0.114500
0.523250 0.618375 0.114500
0.586500 0.618375 0.114500
0.649750 0.618375 0.114500
0.713000 0.618375 0.114500
0.776250 0.618375 0.114500
0.839500 0.618375 0.114500
0.902750 0.618375 0.114500
0.920000 0.618375 0.114500
0.000000 0.685063 0.114500
0.017250 0.685063 0.114500
0.080500 0.685063 0.114500
0.143750 0.685063 0.114500
0.207000 0.685063 0.114500
0.270250 0.685063 0.114500
0.333500 0.685063 0.114500
0.396750 0.685063 0.114500
0.460000 0.685063 0.114500
0.523250 0.685063 0.114500
0.586500 0.685063 0.114500
0.649750 0.685063 0.114500
0.713000 0.685063 0.114500
0.776250 0.685063 0.114500
0.839500 0.685063 0.114500
0.902750 0.685063 0.114500
0.920000 0.685063 0.114500
0.000000 0.751750 0.114500
0.017250 0.751750 0.114500
0.080500 0.751750 0.114500
0.143750 0.751750 0.114500
0.207000 0.751750 0.114500
0.270250 0.751750 0.114500
0.333500 0.751750 0.114500
0.396750 0.751750 0.114500
0.460000 0.751750 0.114500
0.523250 0.751750 0.114500
0.586500 0.751750 0.114500
0.649750 0.751750 0.114500
0.713000 0.751750 0.114500
0.776250 0.751750 0.114500
0.839500 0.751750 0.114500
0.902750 0.751750 0.114500
0.920000 0.751750 0.114500
0.000000 0.818437 0.114500
0.017250 0.818437 0.114500
0.080500 0.818437 0.114500
0.143750 0.818437 0.114500
0.207000 0.818437 0.114500
0.270250 0.818437 0.114500
0.333500 0.818437 0.114500
0.396750 0.818437 0.114500
0.460000 0.818437 0.114500
0.523250 0.818437 0.114500
0.586500 0.818437 0.114500
0.649750 0.818437 0.114500
0.713000 0.818437 0.114500
0.776250 0.818437 0.114500
0.839500 0.818437 0.114500
0.902750 0.818437 0.114500
0.920000 0.818437 0.114500
0.000000 0.885125 0.114500
0.017250 0.885125 0.114500
0.080500 0.885125 0.114500
0.143750 0.885125 0.114500
0.207000 0.885125 0.114500
0.270250 0.885125 0.114500
0.333500 0.885125 0.114500
0.396750 0.885125 0.114500
0.460000 0.885125 0.114500
0.523250 0.885125 0.114500
0.586500 0.885125 0.114500
0.649750 0.885125 0.114500
0.713000 0.885125 0.114500
0.776250 0.885125 0.114500
0.839500 0.885125 0.114500
0.902750 0.885125 0.114500
0.920000 0.885125 0.114500
0.000000 0.951813 0.114500
0.017250 0.951813 0.114500
0.080500 0.951813 0.114500
0.143750 0.951813 0.114500
0.207000 0.951813 0.114500
0.270250 0.951813 0.114500
0.333500 0.951813 0.114500
0.396750 0.951813 0.114500
0.460000 0.951813 0.114500
0.523250 0.951813 0.114500
0.586500 0.951813 0.114500
0.649750 0.951813 0.114500
0.713000 0.951813 0.114500
0.776250 0.951813 0.114500
0.839500 0.951813 0.114500
0.902750 0.951813 0.114500
0.920000 0.951813 0.114500
0.000000 0.970000 0.114500
0.017250 0.970000 0.114500
0.080500 0.970000 0.114500
0.143750 0.970000 0.114500
0.207000 0.970000 0.114500
0.270250 0.970000 0.114500
0.333500 0.970000 0.114500
0.396750 0.970000 0.114500
0.460000 0.970000 0.114500
0.523250 0.970000 0.114500
0.586500 0.970000 0.114500
0.649750 0.970000 0.114500
0.713000 0.970000 0.114500
0.776250 0.970000 0.114500
0.839500 0.970000 0.114500
0.902750 0.970000 0.114500
0.920000 0.970000 0.114500
0.000000 0.000000 0.188750
0.017250 0.000000 0.188750
0.080500 0.000000 0.188750
0.143750 0.000000 0.188750
0.207000 0.000000 0.188750
0.270250 0.000000 0.188750
0.333500 0.000000 0.188750
0.396750 0.000000 0.188750
0.460000 0.000000 0.188750
0.523250 0.000000 0.188750
0.586500 0.000000 0.188750
0.649750 0.000000 0.188750
0.713000 0.000000 0.188750
0.776250 0.000000 0.188750
0.839500 0.000000 0.188750
0.902750 0.000000 0.188750
0.920000 0.000000 0.188750
0.000000 0.018187 0.188750
