design-assets/CC Showcase/cool_neutral_portrait_lut.cube
TITLE "Cool Neutral Portrait LUT"
LUT_3D_SIZE 9
DOMAIN_MIN 0.0 0.0 0.0
DOMAIN_MAX 1.0 1.0 1.0
0.000000 0.000000 0.020000
0.080500 0.000000 0.020000
0.207000 0.000000 0.020000
0.333500 0.000000 0.020000
0.460000 0.000000 0.020000
0.586500 0.000000 0.020000
0.713000 0.000000 0.020000
0.839500 0.000000 0.020000
0.920000 0.000000 0.020000
0.000000 0.084875 0.020000
0.080500 0.084875 0.020000
0.207000 0.084875 0.020000
0.333500 0.084875 0.020000
0.460000 0.084875 0.020000
0.586500 0.084875 0.020000
0.713000 0.084875 0.020000
0.839500 0.084875 0.020000
0.920000 0.084875 0.020000
0.000000 0.218250 0.020000
0.080500 0.218250 0.020000
0.207000 0.218250 0.020000
0.333500 0.218250 0.020000
0.460000 0.218250 0.020000
0.586500 0.218250 0.020000
0.713000 0.218250 0.020000
0.839500 0.218250 0.020000
0.920000 0.218250 0.020000
0.000000 0.351625 0.020000
0.080500 0.351625 0.020000
0.207000 0.351625 0.020000
0.333500 0.351625 0.020000
0.460000 0.351625 0.020000
0.586500 0.351625 0.020000
0.713000 0.351625 0.020000
0.839500 0.351625 0.020000
0.920000 0.351625 0.020000
0.000000 0.485000 0.020000
0.080500 0.485000 0.020000
0.207000 0.485000 0.020000
0.333500 0.485000 0.020000
0.460000 0.485000 0.020000
0.586500 0.485000 0.020000
0.713000 0.485000 0.020000
0.839500 0.485000 0.020000
0.920000 0.485000 0.020000
0.000000 0.618375 0.020000
0.080500 0.618375 0.020000
0.207000 0.618375 0.020000
0.333500 0.618375 0.020000
0.460000 0.618375 0.020000
0.586500 0.618375 0.020000
0.713000 0.618375 0.020000
0.839500 0.618375 0.020000
0.920000 0.618375 0.020000
0.000000 0.751750 0.020000
0.080500 0.751750 0.020000
0.207000 0.751750 0.020000
0.333500 0.751750 0.020000
0.460000 0.751750 0.020000
0.586500 0.751750 0.020000
0.713000 0.751750 0.020000
0.839500 0.751750 0.020000
0.920000 0.751750 0.020000
0.000000 0.885125 0.020000
0.080500 0.885125 0.020000
0.207000 0.885125 0.020000
0.333500 0.885125 0.020000
0.460000 0.885125 0.020000
0.586500 0.885125 0.020000
0.713000 0.885125 0.020000
0.839500 0.885125 0.020000
0.920000 0.885125 0.020000
0.000000 0.970000 0.020000
0.080500 0.970000 0.020000
0.207000 0.970000 0.020000
0.333500 0.970000 0.020000
0.460000 0.970000 0.020000
0.586500 0.970000 0.020000
0.713000 0.970000 0.020000
0.839500 0.970000 0.020000
0.920000 0.970000 0.020000
0.000000 0.000000 0.114500
0.080500 0.000000 0.114500
0.207000 0.000000 0.114500
0.333500 0.000000 0.114500
0.460000 0.000000 0.114500
0.586500 0.000000 0.114500
0.713000 0.000000 0.114500
0.839500 0.000000 0.114500
0.920000 0.000000 0.114500
0.000000 0.084875 0.114500
0.080500 0.084875 0.114500
0.207000 0.084875 0.114500
0.333500 0.084875 0.114500
0.460000 0.084875 0.114500
0.586500 0.084875 0.114500
0.713000 0.084875 0.114500
0.839500 0.084875 0.114500
0.920000 0.084875 0.114500
0.000000 0.218250 0.114500
0.080500 0.218250 0.114500
0.207000 0.218250 0.114500
0.333500 0.218250 0.114500
0.460000 0.218250 0.114500
0.586500 0.218250 0.114500
0.713000 0.218250 0.114500
0.839500 0.218250 0.114500
0.920000 0.218250 0.114500
0.000000 0.351625 0.114500
0.080500 0.351625 0.114500
0.207000 0.351625 0.114500
0.333500 0.351625 0.114500
0.460000 0.351625 0.114500
0.586500 0.351625 0.114500
0.713000 0.351625 0.114500
0.839500 0.351625 0.114500
0.920000 0.351625 0.114500
0.000000 0.485000 0.114500
0.080500 0.485000 0.114500
0.207000 0.485000 0.114500
0.333500 0.485000 0.114500
0.460000 0.485000 0.114500
0.586500 0.485000 0.114500
0.713000 0.485000 0.114500
0.839500 0.485000 0.114500
0.920000 0.485000 0.114500
0.000000 0.618375 0.114500
0.080500 0.618375 0.114500
0.207000 0.618375 0.114500
0.333500 0.618375 0.114500
0.460000 0.618375 0.114500
0.586500 0.618375 0.114500
0.713000 0.618375 0.114500
0.839500 0.618375 0.114500
0.920000 0.618375 0.114500
0.000000 0.751750 0.114500
0.080500 0.751750 0.114500
0.207000 0.751750 0.114500
0.333500 0.751750 0.114500
0.460000 0.751750 0.114500
0.586500 0.751750 0.114500
0.713000 0.751750 0.114500
0.839500 0.751750 0.114500
0.920000 0.751750 0.114500
0.000000 0.885125 0.114500
0.080500 0.885125 0.114500
0.207000 0.885125 0.114500
0.333500 0.885125 0.114500
0.460000 0.885125 0.114500
0.586500 0.885125 0.114500
0.713000 0.885125 0.114500
0.839500 0.885125 0.114500
0.920000 0.885125 0.114500
0.000000 0.970000 0.114500
0.080500 0.970000 0.114500
0.207000 0.970000 0.114500
0.333500 0.970000 0.114500
0.460000 0.970000 0.114500
0.586500 0.970000 0.114500
0.713000 0.970000 0.114500
0.839500 0.970000 0.114500
0.920000 0.970000 0.114500
0.000000 0.000000 0.263000
0.080500 0.000000 0.263000
0.207000 0.000000 0.263000
0.333500 0.000000 0.263000
0.460000 0.000000 0.263000
0.586500 0.000000 0.263000
0.713000 0.000000 0.263000
0.839500 0.000000 0.263000
0.920000 0.000000 0.263000
0.000000 0.084875 0.263000
0.080500 0.084875 0.263000
0.207000 0.084875 0.263000
0.333500 0.084875 0.263000
0.460000 0.084875 0.263000
0.586500 0.084875 0.263000
0.713000 0.084875 0.263000
0.839500 0.084875 0.263000
0.920000 0.084875 0.263000
0.000000 0.218250 0.263000
0.080500 0.218250 0.263000
0.207000 0.218250 0.263000
0.333500 0.218250 0.263000
0.460000 0.218250 0.263000
0.586500 0.218250 0.263000
0.713000 0.218250 0.263000
0.839500 0.218250 0.263000
0.920000 0.218250 0.263000
0.000000 0.351625 0.263000
0.080500 0.351625 0.263000
0.207000 0.351625 0.263000
0.333500 0.351625 0.263000
0.460000 0.351625 0.263000
0.586500 0.351625 0.263000
0.713000 0.351625 0.263000
0.839500 0.351625 0.263000
0.920000 0.351625 0.263000
0.000000 0.485000 0.263000
0.080500 0.485000 0.263000
0.207000 0.485000 0.263000
0.333500 0.485000 0.263000
0.460000 0.485000 0.263000
0.586500 0.485000 0.263000
0.713000 0.485000 0.263000
0.839500 0.485000 0.263000
0.920000 0.485000 0.263000
0.000000 0.618375 0.263000
0.080500 0.618375 0.263000
0.207000 0.618375 0.263000
0.333500 0.618375 0.263000
0.460000 0.618375 0.263000
0.586500 0.618375 0.263000
0.713000 0.618375 0.263000
0.839500 0.618375 0.263000
0.920000 0.618375 0.263000
0.000000 0.751750 0.263000
0.080500 0.751750 0.263000
0.207000 0.751750 0.263000
0.333500 0.751750 0.263000
0.460000 0.751750 0.263000
0.586500 0.751750 0.263000
0.713000 0.751750 0.263000
0.839500 0.751750 0.263000
0.920000 0.751750 0.263000
0.000000 0.885125 0.263000
0.080500 0.885125 0.263000
0.207000 0.885125 0.263000
0.333500 0.885125 0.263000
0.460000 0.885125 0.263000
0.586500 0.885125 0.263000
0.713000 0.885125 0.263000
0.839500 0.885125 0.263000
0.920000 0.885125 0.263000
0.000000 0.970000 0.263000
0.080500 0.970000 0.263000
0.207000 0.970000 0.263000
0.333500 0.970000 0.263000
0.460000 0.970000 0.263000
0.586500 0.970000 0.263000
0.713000 0.970000 0.263000
0.839500 0.970000 0.263000
0.920000 0.970000 0.263000
0.000000 0.000000 0.411500
0.080500 0.000000 0.411500
0.207000 0.000000 0.411500
0.333500 0.000000 0.411500
0.460000 0.000000 0.411500
0.586500 0.000000 0.411500
0.713000 0.000000 0.411500
0.839500 0.000000 0.411500
0.920000 0.000000 0.411500
0.000000 0.084875 0.411500
0.080500 0.084875 0.411500
0.207000 0.084875 0.411500
0.333500 0.084875 0.411500
0.460000 0.084875 0.411500
0.586500 0.084875 0.411500
0.713000 0.084875 0.411500
0.839500 0.084875 0.411500
0.920000 0.084875 0.411500
0.000000 0.218250 0.411500
0.080500 0.218250 0.411500
0.207000 0.218250 0.411500
0.333500 0.218250 0.411500
0.460000 0.218250 0.411500
0.586500 0.218250 0.411500
0.713000 0.218250 0.411500
0.839500 0.218250 0.411500
0.920000 0.218250 0.411500
0.000000 0.351625 0.411500
0.080500 0.351625 0.411500
0.207000 0.351625 0.411500
0.333500 0.351625 0.411500
0.460000 0.351625 0.411500
0.586500 0.351625 0.411500
0.713000 0.351625 0.411500
0.839500 0.351625 0.411500
0.920000 0.351625 0.411500
0.000000 0.485000 0.411500
0.080500 0.485000 0.411500
0.207000 0.485000 0.411500
0.333500 0.485000 0.411500
0.460000 0.485000 0.411500
0.586500 0.485000 0.411500
0.713000 0.485000 0.411500
0.839500 0.485000 0.411500
0.920000 0.485000 0.411500
0.000000 0.618375 0.411500
0.080500 0.618375 0.411500
0.207000 0.618375 0.411500
0.333500 0.618375 0.411500
0.460000 0.618375 0.411500
0.586500 0.618375 0.411500
0.713000 0.618375 0.411500
0.839500 0.618375 0.411500
0.920000 0.618375 0.411500
0.000000 0.751750 0.411500
0.080500 0.751750 0.411500
0.207000 0.751750 0.411500
0.333500 0.751750 0.411500
0.460000 0.751750 0.411500
0.586500 0.751750 0.411500
0.713000 0.751750 0.411500
0.839500 0.751750 0.411500
0.920000 0.751750 0.411500
0.000000 0.885125 0.411500
0.080500 0.885125 0.411500
0.207000 0.885125 0.411500
0.333500 0.885125 0.411500
0.460000 0.885125 0.411500
0.586500 0.885125 0.411500
0.713000 0.885125 0.411500
0.839500 0.885125 0.411500
0.920000 0.885125 0.411500
0.000000 0.970000 0.411500
0.080500 0.970000 0.411500
0.207000 0.970000 0.411500
0.333500 0.970000 0.411500
0.460000 0.970000 0.411500
0.586500 0.970000 0.411500
0.713000 0.970000 0.411500
0.839500 0.970000 0.411500
0.920000 0.970000 0.411500
0.000000 0.000000 0.560000
0.080500 0.000000 0.560000
0.207000 0.000000 0.560000
0.333500 0.000000 0.560000
0.460000 0.000000 0.560000
0.586500 0.000000 0.560000
0.713000 0.000000 0.560000
0.839500 0.000000 0.560000
0.920000 0.000000 0.560000
0.000000 0.084875 0.560000
0.080500 0.084875 0.560000
0.207000 0.084875 0.560000
0.333500 0.084875 0.560000
0.460000 0.084875 0.560000
0.586500 0.084875 0.560000
0.713000 0.084875 0.560000
0.839500 0.084875 0.560000
0.920000 0.084875 0.560000
0.000000 0.218250 0.560000
0.080500 0.218250 0.560000
0.207000 0.218250 0.560000
0.333500 0.218250 0.560000
0.460000 0.218250 0.560000
0.586500 0.218250 0.560000
0.713000 0.218250 0.560000
0.839500 0.218250 0.560000
0.920000 0.218250 0.560000
0.000000 0.351625 0.560000
0.080500 0.351625 0.560000
0.207000 0.351625 0.560000
0.333500 0.351625 0.560000
0.460000 0.351625 0.560000
0.586500 0.351625 0.560000
0.713000 0.351625 0.560000
0.839500 0.351625 0.560000
0.920000 0.351625 0.560000
0.000000 0.485000 0.560000
0.080500 0.485000 0.560000
0.207000 0.485000 0.560000
0.333500 0.485000 0.560000
0.460000 0.485000 0.560000
0.586500 0.485000 0.560000
0.713000 0.485000 0.560000
0.839500 0.485000 0.560000
0.920000 0.485000 0.560000
0.000000 0.618375 0.560000
0.080500 0.618375 0.560000
0.207000 0.618375 0.560000
0.333500 0.618375 0.560000
0.460000 0.618375 0.560000
0.586500 0.618375 0.560000
0.713000 0.618375 0.560000
0.839500 0.618375 0.560000
0.920000 0.618375 0.560000
0.000000 0.751750 0.560000
0.080500 0.751750 0.560000
0.207000 0.751750 0.560000
0.333500 0.751750 0.560000
0.460000 0.751750 0.560000
0.586500 0.751750 0.560000
0.713000 0.751750 0.560000
0.839500 0.751750 0.560000
0.920000 0.751750 0.560000
0.000000 0.885125 0.560000
0.080500 0.885125 0.560000
0.207000 0.885125 0.560000
0.333500 0.885125 0.560000
0.460000 0.885125 0.560000
0.586500 0.885125 0.560000
0.713000 0.885125 0.560000
0.839500 0.885125 0.560000
0.920000 0.885125 0.560000
0.000000 0.970000 0.560000
0.080500 0.970000 0.560000
0.207000 0.970000 0.560000
0.333500 0.970000 0.560000
0.460000 0.970000 0.560000
0.586500 0.970000 0.560000
0.713000 0.970000 0.560000
0.839500 0.970000 0.560000
0.920000 0.970000 0.560000
0.000000 0.000000 0.708500
0.080500 0.000000 0.708500
0.207000 0.000000 0.708500
0.333500 0.000000 0.708500
0.460000 0.000000 0.708500
0.586500 0.000000 0.708500
0.713000 0.000000 0.708500
0.839500 0.000000 0.708500
0.920000 0.000000 0.708500
0.000000 0.084875 0.708500
0.080500 0.084875 0.708500
0.207000 0.084875 0.708500
0.333500 0.084875 0.708500
0.460000 0.084875 0.708500
0.586500 0.084875 0.708500
0.713000 0.084875 0.708500
0.839500 0.084875 0.708500
0.920000 0.084875 0.708500
0.000000 0.218250 0.708500
0.080500 0.218250 0.708500
0.207000 0.218250 0.708500
0.333500 0.218250 0.708500
0.460000 0.218250 0.708500
0.586500 0.218250 0.708500
0.713000 0.218250 0.708500
0.839500 0.218250 0.708500
0.920000 0.218250 0.708500
0.000000 0.351625 0.708500
0.080500 0.351625 0.708500
0.207000 0.351625 0.708500
0.333500 0.351625 0.708500
0.460000 0.351625 0.708500
0.586500 0.351625 0.708500
0.713000 0.351625 0.708500
0.839500 0.351625 0.708500
0.920000 0.351625 0.708500
0.000000 0.485000 0.708500
0.080500 0.485000 0.708500
0.207000 0.485000 0.708500
0.333500 0.485000 0.708500
0.460000 0.485000 0.708500
0.586500 0.485000 0.708500
0.713000 0.485000 0.708500
0.839500 0.485000 0.708500
0.920000 0.485000 0.708500
0.000000 0.618375 0.708500
0.080500 0.618375 0.708500
0.207000 0.618375 0.708500
0.333500 0.618375 0.708500
0.460000 0.618375 0.708500
0.586500 0.618375 0.708500
0.713000 0.618375 0.708500
0.839500 0.618375 0.708500
0.920000 0.618375 0.708500
0.000000 0.751750 0.708500
0.080500 0.751750 0.708500
0.207000 0.751750 0.708500
0.333500 0.751750 0.708500
0.460000 0.751750 0.708500
0.586500 0.751750 0.708500
0.713000 0.751750 0.708500
0.839500 0.751750 0.708500
0.920000 0.751750 0.708500
0.000000 0.885125 0.708500
0.080500 0.885125 0.708500
0.207000 0.885125 0.708500
0.333500 0.885125 0.708500
0.460000 0.885125 0.708500
0.586500 0.885125 0.708500
0.713000 0.885125 0.708500
0.839500 0.885125 0.708500
0.920000 0.885125 0.708500
0.000000 0.970000 0.708500
0.080500 0.970000 0.708500
0.207000 0.970000 0.708500
0.333500 0.970000 0.708500
0.460000 0.970000 0.708500
0.586500 0.970000 0.708500
0.713000 0.970000 0.708500
0.839500 0.970000 0.708500
0.920000 0.970000 0.708500
0.000000 0.000000 0.857000
0.080500 0.000000 0.857000
0.207000 0.000000 0.857000
0.333500 0.000000 0.857000
0.460000 0.000000 0.857000
0.586500 0.000000 0.857000
0.713000 0.000000 0.857000
0.839500 0.000000 0.857000
0.920000 0.000000 0.857000
0.000000 0.084875 0.857000
0.080500 0.084875 0.857000
0.207000 0.084875 0.857000
0.333500 0.084875 0.857000
0.460000 0.084875 0.857000
0.586500 0.084875 0.857000
0.713000 0.084875 0.857000
0.839500 0.084875 0.857000
0.920000 0.084875 0.857000
0.000000 0.218250 0.857000
0.080500 0.218250 0.857000
0.207000 0.218250 0.857000
0.333500 0.218250 0.857000
0.460000 0.218250 0.857000
0.586500 0.218250 0.857000
0.713000 0.218250 0.857000
0.839500 0.218250 0.857000
0.920000 0.218250 0.857000
0.000000 0.351625 0.857000
0.080500 0.351625 0.857000
0.207000 0.351625 0.857000
0.333500 0.351625 0.857000
0.460000 0.351625 0.857000
0.586500 0.351625 0.857000
0.713000 0.351625 0.857000
0.839500 0.351625 0.857000
0.920000 0.351625 0.857000
0.000000 0.485000 0.857000
0.080500 0.485000 0.857000
0.207000 0.485000 0.857000
0.333500 0.485000 0.857000
0.460000 0.485000 0.857000
0.586500 0.485000 0.857000
0.713000 0.485000 0.857000
0.839500 0.485000 0.857000
0.920000 0.485000 0.857000
0.000000 0.618375 0.857000
0.080500 0.618375 0.857000
0.207000 0.618375 0.857000
0.333500 0.618375 0.857000
0.460000 0.618375 0.857000
0.586500 0.618375 0.857000
0.713000 0.618375 0.857000
0.839500 0.618375 0.857000
0.920000 0.618375 0.857000
0.000000 0.751750 0.857000
0.080500 0.751750 0.857000
0.207000 0.751750 0.857000
0.333500 0.751750 0.857000
0.460000 0.751750 0.857000
0.586500 0.751750 0.857000
0.713000 0.751750 0.857000
0.839500 0.751750 0.857000
0.920000 0.751750 0.857000
0.000000 0.885125 0.857000
0.080500 0.885125 0.857000
0.207000 0.885125 0.857000
0.333500 0.885125 0.857000
0.460000 0.885125 0.857000
0.586500 0.885125 0.857000
0.713000 0.885125 0.857000
0.839500 0.885125 0.857000
0.920000 0.885125 0.857000
0.000000 0.970000 0.857000
0.080500 0.970000 0.857000
0.207000 0.970000 0.857000
0.333500 0.970000 0.857000
0.460000 0.970000 0.857000
0.586500 0.970000 0.857000
0.713000 0.970000 0.857000
0.839500 0.970000 0.857000
0.920000 0.970000 0.857000
0.000000 0.000000 1.000000
0.080500 0.000000 1.000000
0.207000 0.000000 1.000000
0.333500 0.000000 1.000000
0.460000 0.000000 1.000000
0.586500 0.000000 1.000000
0.713000 0.000000 1.000000
0.839500 0.000000 1.000000
0.920000 0.000000 1.000000
0.000000 0.084875 1.000000
0.080500 0.084875 1.000000
0.207000 0.084875 1.000000
0.333500 0.084875 1.000000
0.460000 0.084875 1.000000
0.586500 0.084875 1.000000
0.713000 0.084875 1.000000
0.839500 0.084875 1.000000
0.920000 0.084875 1.000000
0.000000 0.218250 1.000000
0.080500 0.218250 1.000000
0.207000 0.218250 1.000000
0.333500 0.218250 1.000000
0.460000 0.218250 1.000000
0.586500 0.218250 1.000000
0.713000 0.218250 1.000000
0.839500 0.218250 1.000000
0.920000 0.218250 1.000000
0.000000 0.351625 1.000000
0.080500 0.351625 1.000000
0.207000 0.351625 1.000000
0.333500 0.351625 1.000000
0.460000 0.351625 1.000000
0.586500 0.351625 1.000000
0.713000 0.351625 1.000000
0.839500 0.351625 1.000000
0.920000 0.351625 1.000000
0.000000 0.485000 1.000000
0.080500 0.485000 1.000000
0.207000 0.485000 1.000000
0.333500 0.485000 1.000000
0.460000 0.485000 1.000000
0.586500 0.485000 1.000000
0.713000 0.485000 1.000000
0.839500 0.485000 1.000000
0.920000 0.485000 1.000000
0.000000 0.618375 1.000000
0.080500 0.618375 1.000000
0.207000 0.618375 1.000000
0.333500 0.618375 1.000000
0.460000 0.618375 1.000000
0.586500 0.618375 1.000000
0.713000 0.618375 1.000000
0.839500 0.618375 1.000000
0.920000 0.618375 1.000000
0.000000 0.751750 1.000000
0.080500 0.751750 1.000000
0.207000 0.751750 1.000000
0.333500 0.751750 1.000000
0.460000 0.751750 1.000000
0.586500 0.751750 1.000000
0.713000 0.751750 1.000000
0.839500 0.751750 1.000000
0.920000 0.751750 1.000000
0.000000 0.885125 1.000000
0.080500 0.885125 1.000000
0.207000 0.885125 1.000000
0.333500 0.885125 1.000000
0.460000 0.885125 1.000000
0.586500 0.885125 1.000000
0.713000 0.885125 1.000000
0.839500 0.885125 1.000000
0.920000 0.885125 1.000000
0.000000 0.970000 1.000000
0.080500 0.970000 1.000000
0.207000 0.970000 1.000000
0.333500 0.970000 1.000000
0.460000 0.970000 1.000000
0.586500 0.970000 1.000000
0.713000 0.970000 1.000000
0.839500 0.970000 1.000000
0.920000 0.970000 1.000000
0.000000 0.000000 1.000000
0.080500 0.000000 1.000000
0.207000 0.000000 1.000000
0.333500 0.000000 1.000000
0.460000 0.000000 1.000000
0.586500 0.000000 1.000000
0.713000 0.000000 1.000000
0.839500 0.000000 1.000000
0.920000 0.000000 1.000000
0.000000 0.084875 1.000000
0.080500 0.084875 1.000000
0.207000 0.084875 1.000000
0.333500 0.084875 1.000000
0.460000 0.084875 1.000000
0.586500 0.084875 1.000000
0.713000 0.084875 1.000000
0.839500 0.084875 1.000000
0.920000 0.084875 1.000000
0.000000 0.218250 1.000000
0.080500 0.218250 1.000000
0.207000 0.218250 1.000000
0.333500 0.218250 1.000000
0.460000 0.218250 1.000000
0.586500 0.218250 1.000000
0.713000 0.218250 1.000000
0.839500 0.218250 1.000000
0.920000 0.218250 1.000000
0.000000 0.351625 1.000000
0.080500 0.351625 1.000000
0.207000 0.351625 1.000000
0.333500 0.351625 1.000000
0.460000 0.351625 1.000000
0.586500 0.351625 1.000000
0.713000 0.351625 1.000000
0.839500 0.351625 1.000000
0.920000 0.351625 1.000000
0.000000 0.485000 1.000000
0.080500 0.485000 1.000000
0.207000 0.485000 1.000000
0.333500 0.485000 1.000000
0.460000 0.485000 1.000000
0.586500 0.485000 1.000000
0.713000 0.485000 1.000000
0.839500 0.485000 1.000000
0.920000 0.485000 1.000000
0.000000 0.618375 1.000000
0.080500 0.618375 1.000000
0.207000 0.618375 1.000000
0.333500 0.618375 1.000000
0.460000 0.618375 1.000000
0.586500 0.618375 1.000000
0.713000 0.618375 1.000000
0.839500 0.618375 1.000000
0.920000 0.618375 1.000000
0.000000 0.751750 1.000000
0.080500 0.751750 1.000000
0.207000 0.751750 1.000000
0.333500 0.751750 1.000000
0.460000 0.751750 1.000000
0.586500 0.751750 1.000000
0.713000 0.751750 1.000000
0.839500 0.751750 1.000000
0.920000 0.751750 1.000000
0.000000 0.885125 1.000000
0.080500 0.885125 1.000000
0.207000 0.885125 1.000000
0.333500 0.885125 1.000000
0.460000 0.885125 1.000000
0.586500 0.885125 1.000000
0.713000 0.885125 1.000000
0.839500 0.885125 1.000000
0.920000 0.885125 1.000000
0.000000 0.970000 1.000000
0.080500 0.970000 1.000000
0.207000 0.970000 1.000000
0.333500 0.970000 1.000000
0.460000 0.970000 1.000000
0.586500 0.970000 1.000000
0.713000 0.970000 1.000000
0.839500 0.970000 1.000000
0.920000 0.970000 1.000000
